X: 7413
T: Clogger's Quilt, The
R: reel
M: 4/4
K: Gmajor
Bd|:e~d3 B~G3|!breath!E2 AG A2 GE|D~G3 dedB|!breath!A2 GA BGGB|
d3B dedB|!breath!A2 GB A2 GE|D~G3 dedB|!breath!A2 GA BG G2|
BddB d2 (3B^cd|ez a{g}a {b}agef|(3gbg eg dGBd|gz ga b~g3|
gBeB dG (3B^cd|ez a{g}a {b}agef|{b}gf{b}ge dGBd|gz ga bga>g:|

